img/arrow.svg

<svg width="39" height="16" viewBox="0 0 39 16" fill="none" xmlns="http://www.w3.org/2000/svg">
<path fill-rule="evenodd" clip-rule="evenodd" d="M38.6499 7.2349L31.5149 0.315559C31.0796 -0.106488 30.3735 -0.106488 29.9383 0.315559C29.5028 0.738138 29.5028 1.42254 29.9383 1.84458L35.1701 6.91823H1.11477C0.499168 6.91823 0 7.4021 0 7.99942C0 8.5962 0.499168 9.0806 1.11477 9.0806H35.1701L29.9384 14.1542C29.5029 14.5758 29.5029 15.2607 29.9384 15.6827C30.156 15.8935 30.4415 15.9989 30.7268 15.9989C31.0121 15.9989 31.2974 15.8935 31.515 15.6827L38.6499 8.7634C39.0853 8.3419 39.0853 7.65695 38.6499 7.2349Z" fill="#0F2137"/>
</svg>

<svg width="39" height="16" fill="none" xmlns="http://www.w3.org/2000/svg"><path fill-rule="evenodd" clip-rule="evenodd" d="M38.65 7.235 31.515.315a1.14 1.14 0 0 0-1.577 0 1.058 1.058 0 0 0 0 1.53l5.232 5.073H1.115C.499 6.918 0 7.402 0 8s.5 1.082 1.115 1.082H35.17l-5.232 5.073a1.057 1.057 0 0 0 0 1.529c.218.21.504.316.789.316.285 0 .57-.106.788-.316l7.135-6.92a1.058 1.058 0 0 0 0-1.528Z" fill="#0F2137"/></svg>
